X: 36907
T: Shoot When The Ducks Are Flying
R: reel
M: 4/4
K: Eminor
eeed efff|e2 ed eBBB|eeed efff|baaf fedB|
e2 ed efff|e2 ed eBBB|e2 ed efff|b2 af fedA||
BBBA AFFD|EEED EFFF|BBBA AFAB|dAde fedA|
B3 A AFFD|EEED EFFF|BAFA AFAB|dAde fedB||

